X: 16652
T: Hannah Mhici Mchicheail's
R: strathspey
M: 4/4
K: Dmajor
DF AB AF AB|AF AB AF E2|DF AB AF dB|AF DF E2 D2:|
f3e d3c|df fe dB BA|1 f2 fe df fe|dB AF E2 D2:|2 ba fe de fe|dB AF E2 D2||

